<?xml version="1.0" encoding="UTF-8"?>
<map version="1.10" tiledversion="1.12.2" orientation="orthogonal" renderorder="right-down" width="26" height="15" tilewidth="18" tileheight="18" infinite="0" nextlayerid="3" nextobjectid="1">
 <tileset firstgid="1" source="tileset.tsx"/>
 <layer id="1" name="atras" width="26" height="15">
  <data encoding="csv">
0,0,0,0,0,0,0,0,0,0,0,0,0,0,0,0,0,0,0,0,0,0,0,0,0,0,
0,0,0,0,0,0,0,0,0,0,0,0,0,0,0,0,0,0,0,0,0,0,0,0,0,0,
0,0,0,0,0,0,0,0,0,0,0,0,0,0,40,0,0,0,0,0,0,0,0,0,0,0,
0,0,0,0,0,0,0,0,0,0,0,58,39,0,40,0,0,0,0,0,0,0,0,0,0,0,
0,0,0,0,0,0,0,0,0,0,0,0,38,0,40,0,0,0,0,0,0,0,0,0,0,0,
0,0,0,0,0,0,0,0,0,0,0,0,0,0,0,0,0,0,0,0,0,0,0,0,0,0,
0,0,0,0,0,0,0,0,0,0,0,0,0,0,0,0,0,0,0,0,0,0,0,0,0,0,
0,0,0,0,0,0,0,0,0,0,0,0,0,0,0,0,0,0,0,0,0,0,0,0,0,0,
0,0,0,0,0,0,0,0,0,0,0,0,0,0,0,0,0,0,0,0,0,0,0,0,0,0,
0,0,0,0,0,0,0,0,0,0,0,0,0,0,0,0,0,0,0,0,0,0,0,0,0,0,
0,0,123,0,0,0,0,0,0,0,0,0,0,0,0,0,0,0,0,0,0,0,0,0,0,0,
0,0,0,0,0,123,0,0,0,0,0,0,0,0,0,0,0,0,0,0,0,0,0,0,0,0,
0,0,0,0,0,0,0,0,0,0,0,0,0,0,123,0,0,0,0,0,0,0,0,0,0,0,
0,0,0,0,0,0,0,0,0,0,0,0,0,0,0,0,0,0,0,0,0,0,0,0,0,0,
0,0,0,0,0,0,0,0,0,0,0,0,0,0,0,0,0,0,0,0,0,0,0,0,0,0
</data>
 </layer>
 <layer id="2" name="adelante" width="26" height="15">
  <data encoding="csv">
123,124,123,123,123,123,124,0,0,0,0,0,0,0,0,0,0,0,0,0,0,0,0,0,0,0,
123,124,105,123,123,105,124,0,0,0,0,0,18,19,20,0,0,0,0,152,0,0,0,0,0,0,
143,144,105,123,105,5,144,0,0,0,0,18,39,39,18,19,20,0,152,0,0,0,0,0,0,0,
123,123,5,143,143,144,0,0,0,0,18,19,20,39,38,39,40,152,0,0,0,154,156,0,0,0,
123,105,124,0,70,0,0,0,0,0,58,59,60,39,58,59,60,0,0,0,0,0,0,0,0,0,
143,143,144,0,90,0,0,0,0,0,0,0,58,98,60,0,0,109,0,0,0,0,112,0,0,0,
0,0,0,0,90,0,0,0,11,0,0,0,0,97,0,0,154,155,156,0,52,0,132,146,0,0,
0,0,130,0,110,0,89,0,0,0,0,0,0,117,0,0,0,0,0,0,72,102,103,104,107,107,
0,0,22,23,23,23,24,0,0,0,0,0,119,118,120,100,140,0,0,0,72,122,123,123,103,103,
23,23,26,123,123,123,124,0,0,0,30,0,0,117,0,0,0,0,147,0,102,26,105,123,123,123,
123,123,129,123,105,123,25,24,107,0,0,0,0,138,69,128,0,111,0,145,122,123,123,123,123,123,
123,22,23,24,123,126,123,25,24,0,125,69,22,23,63,63,0,131,0,102,26,102,103,104,123,123,
123,122,123,22,23,23,24,105,25,23,23,23,26,105,125,25,63,63,63,26,123,122,123,124,123,123,
123,122,123,122,123,123,124,123,123,123,123,123,123,62,63,63,64,123,123,105,123,122,123,124,123,123,
123,122,123,122,123,123,124,123,123,123,123,123,123,122,123,123,124,123,123,123,123,122,123,124,123,123
</data>
 </layer>
</map>
