<?xml version="1.0" encoding="UTF-8"?>
<map version="1.10" tiledversion="1.12.2" orientation="orthogonal" renderorder="right-down" width="26" height="15" tilewidth="18" tileheight="18" infinite="0" nextlayerid="3" nextobjectid="1">
 <tileset firstgid="1" source="tileset.tsx"/>
 <layer id="1" name="atras" width="26" height="15">
  <data encoding="csv">
0,116,0,0,96,0,0,0,0,0,0,0,0,0,0,0,0,0,0,0,0,0,0,0,0,0,
134,116,134,134,115,0,0,8,0,9,0,154,155,156,0,0,0,0,0,0,0,0,0,0,0,0,
0,116,0,0,0,0,7,7,0,0,0,0,0,0,0,0,0,0,157,0,0,0,0,0,0,0,
134,116,135,0,0,0,0,0,0,0,0,0,0,0,0,68,0,0,0,0,0,0,0,154,156,0,
0,116,0,0,0,0,67,0,0,0,0,0,0,0,0,89,0,0,0,0,0,0,0,0,0,0,
134,115,0,0,15,14,13,14,16,0,0,29,0,0,48,50,48,0,0,0,28,69,0,0,0,0,
0,0,0,0,0,0,53,0,0,0,0,0,0,0,0,0,0,0,0,49,50,51,0,0,0,0,
0,0,0,0,0,0,53,0,0,0,15,13,16,0,0,0,0,147,0,0,0,0,0,0,0,0,
0,89,0,126,0,0,53,0,0,0,0,33,0,0,0,0,0,0,0,126,0,0,0,62,36,63,
63,63,63,63,64,0,73,130,0,0,0,53,0,0,125,0,0,0,62,63,35,63,63,26,56,26,
105,105,123,123,25,63,63,63,64,0,0,73,129,0,62,63,63,63,26,123,55,105,123,105,56,26,
63,63,63,64,123,123,105,105,25,63,63,63,63,63,26,105,105,123,123,105,55,123,105,105,56,26,
105,123,123,124,123,105,105,123,105,123,105,123,123,123,105,123,62,63,64,123,75,105,105,105,56,26,
54,54,54,54,54,54,54,54,54,54,54,54,54,54,54,54,54,54,54,54,54,54,54,54,54,54,
74,74,74,74,74,74,74,74,74,74,74,74,74,74,74,74,74,74,74,74,74,74,74,74,74,74
</data>
 </layer>
 <layer id="2" name="adelante" width="26" height="15">
  <data encoding="csv">
0,0,0,0,0,0,0,0,0,0,0,0,0,0,0,0,0,0,0,0,0,0,0,0,0,0,
0,0,0,0,0,0,0,0,0,0,0,0,0,0,0,0,0,0,0,0,0,0,0,0,0,0,
0,0,0,0,0,0,0,0,0,0,0,0,0,0,0,0,0,0,0,0,0,0,0,0,0,0,
0,0,0,0,0,0,0,0,0,0,0,0,0,0,0,0,0,0,0,0,0,0,0,0,0,0,
0,0,0,0,0,0,0,0,0,0,0,0,0,0,0,0,0,0,0,0,0,0,0,0,0,0,
0,0,0,0,0,0,0,0,0,0,0,0,0,0,0,0,0,0,0,0,0,0,0,0,0,0,
0,0,0,0,0,0,0,0,0,0,0,0,0,0,0,0,0,0,0,0,0,0,0,0,0,0,
0,0,0,0,0,0,0,0,0,0,0,0,0,0,0,0,0,0,0,0,0,0,0,0,0,0,
0,0,0,0,0,0,0,0,0,0,0,0,0,0,0,0,0,0,0,0,0,0,0,0,0,0,
0,0,0,0,0,0,0,0,0,0,0,0,0,0,0,0,0,0,0,0,0,0,0,0,0,0,
0,0,0,0,0,0,0,0,0,0,0,0,0,0,0,0,0,0,0,0,0,0,0,0,0,0,
0,0,0,0,0,0,0,0,0,0,0,0,0,0,0,0,0,0,0,0,0,0,0,0,0,0,
0,0,0,0,0,0,0,0,0,0,0,0,0,0,0,0,0,0,0,0,0,0,0,0,0,0,
0,0,0,0,0,0,0,0,0,0,0,0,0,0,0,0,0,0,0,0,0,0,0,0,0,0,
0,0,0,0,0,0,0,0,0,0,0,0,0,0,0,0,0,0,0,0,0,0,0,0,0,0
</data>
 </layer>
</map>
