<?xml version="1.0" encoding="UTF-8"?>
<map version="1.10" tiledversion="1.12.2" orientation="orthogonal" renderorder="right-down" width="20" height="16" tilewidth="24" tileheight="24" infinite="0" nextlayerid="2" nextobjectid="1">
 <tileset firstgid="1" source="background.tsx"/>
 <layer id="1" name="cielo" width="20" height="16" parallaxx="0.15" parallaxy="0.15">
  <data encoding="csv">
2,1,3,1,4,4,4,4,2,1,4,1,4,4,1,4,3,2,1,3,
1,1,1,1,4,2,4,1,2,4,4,2,3,2,2,4,3,1,4,1,
2,3,1,3,4,2,3,3,4,4,1,4,2,4,4,2,3,3,1,4,
1,2,4,3,4,1,4,1,3,4,2,2,2,1,2,2,4,3,3,4,
3,1,4,2,2,4,1,4,3,2,4,4,3,4,3,1,3,4,1,2,
10,10,9,11,9,9,9,9,12,9,11,10,11,9,10,11,11,9,10,10,
19,18,19,19,20,19,20,20,17,17,19,20,19,20,18,19,17,19,18,20,
17,18,17,20,18,17,18,20,20,18,20,18,17,20,19,20,17,19,18,18,
17,19,17,17,19,19,18,20,19,18,17,17,18,20,18,17,20,18,19,17,
18,20,18,20,17,20,19,20,17,19,20,19,17,18,18,19,18,19,20,18,
19,17,20,19,20,18,17,17,17,18,18,18,18,19,19,19,19,19,19,17,
19,18,20,18,17,19,17,20,17,20,18,18,19,17,20,17,18,17,19,19,
19,17,20,19,17,17,19,17,17,17,20,17,17,18,18,20,18,17,20,18,
18,18,17,20,20,19,19,20,19,17,18,19,17,17,17,19,19,20,20,19,
20,17,17,19,20,17,19,18,20,19,19,18,18,19,18,18,19,17,19,17,
20,17,19,18,20,19,17,19,18,19,19,18,19,17,17,18,18,17,18,20
</data>
 </layer>
</map>
