<?xml version="1.0" encoding="UTF-8"?>
<map version="1.10" tiledversion="1.12.2" orientation="orthogonal" renderorder="right-down" width="26" height="15" tilewidth="18" tileheight="18" infinite="0" nextlayerid="3" nextobjectid="1">
 <tileset firstgid="1" source="tileset.tsx"/>
 <layer id="1" name="atras" width="26" height="15">
  <data encoding="csv">
0,0,0,0,0,0,0,0,0,0,0,0,0,0,0,0,0,0,0,0,0,0,0,0,0,0,
0,0,0,0,0,0,0,0,0,0,0,0,0,0,0,0,0,0,0,0,0,0,0,0,0,0,
0,0,0,0,0,0,0,13,0,0,0,0,0,42,0,61,0,0,0,0,0,0,0,0,0,0,
0,42,0,0,0,0,0,29,0,0,0,21,6,6,39,6,22,23,0,0,0,0,0,0,0,0,
0,105,91,0,27,0,64,63,64,0,0,0,84,0,53,0,9,0,0,0,0,0,0,0,0,0,
0,76,0,0,58,0,0,0,8,0,27,0,0,0,53,0,57,0,0,37,0,0,0,13,0,0,
0,76,0,0,75,0,0,0,24,0,43,0,0,0,53,0,21,6,22,39,7,0,0,29,0,0,
19,19,19,19,20,0,0,0,0,0,74,0,0,0,26,0,0,0,0,54,0,66,0,18,19,19,
35,35,10,35,36,110,78,0,0,0,75,26,0,0,53,0,0,40,0,54,89,107,0,34,35,35,
35,11,61,35,36,0,76,0,0,18,19,20,0,0,53,0,0,0,0,70,81,0,0,34,35,35,
19,19,19,20,36,0,76,0,0,34,35,36,0,0,69,0,60,0,101,86,103,0,0,34,18,19,
35,35,35,36,36,0,79,21,39,7,35,36,0,18,19,19,19,19,19,19,19,20,0,34,34,35,
35,35,35,36,36,14,96,14,53,34,35,36,14,34,35,18,19,20,14,14,14,14,14,34,34,35,
35,35,35,36,36,46,46,46,53,34,35,36,46,34,35,34,35,36,46,46,46,46,46,34,34,35,
35,35,35,36,36,46,46,46,53,34,35,36,46,34,35,34,35,36,46,46,46,46,46,34,34,35
</data>
 </layer>
 <layer id="2" name="adelante" width="26" height="15">
  <data encoding="csv">
0,0,0,0,0,0,0,0,0,0,0,0,0,0,0,0,0,0,0,0,0,0,0,0,0,0,
0,0,0,0,0,0,0,0,0,0,0,0,0,0,0,0,0,0,0,0,0,0,0,0,0,0,
0,0,0,0,0,0,0,0,0,0,0,0,0,0,0,0,0,0,0,0,0,0,0,0,0,0,
0,0,0,0,0,0,0,0,0,0,0,0,0,0,0,0,0,0,0,0,0,0,0,0,0,0,
0,0,0,0,0,0,0,0,0,0,0,0,0,0,0,0,0,0,0,0,0,0,0,0,0,0,
0,0,0,0,0,0,0,0,0,0,0,0,0,0,0,0,0,0,0,0,0,0,0,0,0,0,
0,0,0,0,0,0,0,0,0,0,0,0,0,0,0,0,0,0,0,0,0,0,0,0,0,0,
0,0,0,0,0,0,0,0,0,0,0,0,0,0,0,0,0,0,0,0,0,0,0,0,0,0,
0,0,0,0,0,0,0,0,0,0,0,0,0,0,0,0,0,0,0,0,0,0,0,0,0,0,
0,0,0,0,0,0,0,0,0,0,0,0,0,0,0,0,0,0,0,0,0,0,0,0,0,0,
0,0,0,0,0,0,0,0,0,0,0,0,0,0,0,0,0,0,0,0,0,0,0,0,0,0,
0,0,0,0,0,0,0,0,0,0,0,0,0,0,0,0,0,10,0,0,0,0,0,0,0,0,
0,0,0,0,0,0,0,0,0,0,0,0,0,0,0,0,0,0,0,0,0,0,0,0,0,0,
0,0,0,0,0,0,0,0,0,0,0,0,0,0,0,0,0,0,0,0,0,0,0,0,0,0,
0,0,0,0,0,0,0,0,0,0,0,0,0,0,0,0,0,0,0,0,0,0,0,0,0,0
</data>
 </layer>
</map>
