<?xml version="1.0" encoding="UTF-8"?>
<map version="1.10" tiledversion="1.12.2" orientation="orthogonal" renderorder="right-down" width="20" height="15" tilewidth="16" tileheight="16" infinite="0" nextlayerid="4" nextobjectid="1">
 <tileset firstgid="1" source="tileset.tsx"/>
 <layer id="1" name="Capa de patrones 1" width="20" height="15" parallaxx="0.15">
  <data encoding="csv">
1,1,1,1,1,1,1,1,2,3,1,1,1,1,1,1,1,1,1,1,
1,1,1,1,1,1,1,1,1,1,1,1,1,1,1,1,1,1,1,1,
1,2,3,1,1,1,12,1,1,1,1,1,1,1,1,1,1,1,1,1,
1,12,1,1,1,1,1,1,1,1,1,1,1,1,1,2,3,1,1,1,
1,1,1,1,1,1,1,1,1,1,1,1,1,1,1,12,13,1,1,1,
1,1,1,1,1,1,1,2,3,1,1,1,1,1,1,1,1,1,1,1,
1,1,1,1,1,1,1,12,1,1,1,1,1,1,1,1,1,1,1,1,
1,2,3,1,1,1,1,1,1,1,1,1,1,1,1,1,1,1,1,1,
1,1,1,1,12,1,1,1,1,1,1,1,1,1,1,1,1,1,1,1,
1,1,1,1,1,1,1,1,1,1,1,1,1,1,1,1,1,1,1,1,
1,1,1,1,1,1,1,1,1,1,1,1,1,1,1,2,3,1,1,1,
1,1,1,1,1,1,1,1,1,1,1,1,1,1,1,12,1,1,1,1,
1,1,1,1,1,1,1,1,1,1,1,1,1,1,1,1,1,1,1,1,
1,1,1,1,1,1,1,1,1,1,1,1,1,1,1,1,1,1,1,1,
1,1,1,1,1,1,1,1,1,1,1,1,1,1,1,1,1,1,1,1
</data>
 </layer>
 <layer id="3" name="Capa de patrones 2" width="20" height="15" parallaxx="0.15">
  <data encoding="csv">
0,0,0,0,0,0,0,0,0,0,0,0,0,0,0,0,0,0,0,0,
0,0,0,0,0,0,0,0,0,0,0,0,0,0,0,0,0,0,0,0,
0,0,0,39,0,0,0,0,0,0,0,0,0,0,0,0,0,0,0,0,
0,0,0,44,0,0,0,0,0,0,0,0,0,0,0,0,0,0,0,0,
0,0,0,45,0,0,0,0,0,39,0,0,0,0,0,0,0,0,0,0,
0,0,0,44,0,0,0,0,0,44,0,0,0,0,0,0,0,0,0,0,
0,0,0,44,0,0,0,0,0,44,0,0,0,0,0,0,0,0,0,0,
0,0,0,39,0,0,0,0,0,44,0,0,0,0,0,0,0,39,0,0,
0,0,0,44,0,0,0,0,0,44,0,0,0,0,0,0,0,44,0,0,
0,0,0,45,0,0,0,0,0,40,0,0,0,0,0,0,0,45,0,0,
0,0,0,44,0,0,0,0,0,44,0,31,0,0,0,0,0,44,0,0,
0,0,0,44,0,0,0,0,0,43,0,44,0,0,0,0,0,44,0,0,
0,0,0,44,0,0,0,0,0,45,0,44,0,0,0,0,0,44,0,0,
0,0,0,44,0,0,0,0,0,44,0,44,0,0,0,0,0,44,0,0,
0,0,0,40,0,0,0,0,0,44,0,44,0,0,0,0,0,40,0,0
</data>
 </layer>
</map>
